X:1
T: The Bob O'Dooly
T: Carlin is your Daughter ready
C:
R:Reel
Q: 232
K:A
M:4/4
L:1/8
|:Ae e2 cA cB|Ae e=g dg B=G|Ae ea eA cA|E1/2E1/2E E2 =GA BG|
Ae e2 cA cB|Ae e=g dg B=G|Ae ea eA cA|E1/2E1/2E E2 =GA BG|
Aa ae ca cA|B=g ge dg B=G|Aa ae ce ae|=gb eg dg B=G|
Aa ae ca cA|B=g ge dg B=G|Aa ae ce ae|=gb eg dg B=G:|
